X:2674
T:Carnival tune (fr Limoux ?)
R:Other
O:France
M:4/4
A:Aude
K:G
B2|\
G2B2 G2B2|G2B2 d2d2|e2e2 a2gg|f2e4 f2|\
g3g G2B2|G2B2 e2d2|e2e2 a2g2|g2d4 z2|
g3g G2B2|G2B2 e2d2|c2Bc A2dd|B2G4z2::\
c2Bc A2dd|B2G4 z2:|\
GABc d2d2|GABc d2dd||


